public/images/bunny-placeholder.svg

<svg width="72" height="72" viewBox="0 0 72 72" fill="none" xmlns="http://www.w3.org/2000/svg">
<path d="M72 36C72 55.882 55.882 72 36 72C16.118 72 0 55.882 0 36C0 16.118 16.118 0 36 0C55.882 0 72 16.118 72 36Z" fill="#E9EAEB"/>
<mask id="mask0" mask-type="alpha" maskUnits="userSpaceOnUse" x="3" y="4" width="65" height="65">
<path d="M67.5 36.25C67.5 54.061 53.061 68.5 35.25 68.5C17.439 68.5 3 54.061 3 36.25C3 18.439 17.439 4 35.25 4C53.061 4 67.5 18.439 67.5 36.25Z" fill="#C4C4C4"/>
</mask>
<g mask="url(#mask0)">
<path d="M46.341 72.364C46.341 80.859 35.072 87.746 21.171 87.746C7.26997 87.746 -3.99902 80.859 -3.99902 72.364V68.449H46.342V72.364H46.341Z" fill="#E9EAEB"/>
<path fill-rule="evenodd" clip-rule="evenodd" d="M12.448 42.447C12.5982 41.5881 12.5559 40.7065 12.324 39.8659C12.0922 39.0253 11.6766 38.2467 11.1072 37.5862C10.5378 36.9258 9.82894 36.4 9.03168 36.0469C8.23443 35.6937 7.3687 35.5219 6.497 35.544C4.92481 35.5854 3.43271 36.2466 2.34591 37.3834C1.2591 38.5202 0.665691 40.0405 0.695 41.613L1.035 58.767L1.065 59.194C-2.114 61.769 -4 64.975 -4 68.449C-4 76.944 7.269 83.831 21.17 83.831C35.071 83.831 46.34 76.944 46.34 68.449C46.34 63.618 42.695 59.306 36.994 56.486L45.492 48.33C48.183 45.747 47.798 41.338 44.7 39.261C42.019 37.464 38.39 38.18 36.593 40.861L28.723 52.601C28.495 52.942 28.321 53.303 28.201 53.675C25.97 53.279 23.612 53.067 21.172 53.067C17.297 53.067 13.626 53.602 10.346 54.558L12.448 42.447Z" fill="#E9EAEB"/>
<path d="M19.47 35.988V35.311C19.47 34.361 19.66 33.566 20.04 32.925C20.444 32.284 20.978 31.655 21.643 31.037C22.26 30.444 22.866 29.933 23.459 29.506C24.052 29.079 24.539 28.628 24.919 28.153C25.299 27.678 25.489 27.12 25.489 26.479C25.489 25.553 25.157 24.9 24.492 24.52C23.851 24.116 22.771 23.915 21.251 23.915C20.254 23.915 19.269 24.045 18.295 24.307C17.322 24.544 16.491 24.853 15.802 25.233V20.425C16.681 19.998 17.713 19.653 18.9 19.392C20.111 19.131 21.429 19 22.853 19C25.607 19 27.708 19.605 29.156 20.816C30.604 22.003 31.328 23.641 31.328 25.731C31.328 27.061 31.055 28.141 30.509 28.972C29.963 29.779 29.168 30.61 28.123 31.465L25.915 33.388C25.321 33.91 25.025 34.623 25.025 35.525V35.988H19.469H19.47ZM19.221 42.292V38.161H25.24V42.292H19.221Z" fill="#BDC2C4"/>
<path fill-rule="evenodd" clip-rule="evenodd" d="M71.984 37.09L69.735 37.023L69.75 36L69.735 34.977L71.984 34.91L72 36L71.984 37.09ZM71.855 32.74L69.614 32.941L69.371 30.918L71.596 30.582L71.856 32.74H71.855ZM71.206 28.442L69.006 28.912L68.52 26.932L70.688 26.329L71.207 28.442H71.206ZM70.04 24.253L67.913 24.987L67.19 23.082L69.268 22.22L70.039 24.253H70.04ZM68.375 20.237L66.353 21.224L65.404 19.419L67.363 18.312L68.375 20.237ZM66.236 16.452L64.348 17.675L63.188 15.998L64.999 14.663L66.236 16.452ZM63.657 12.952L61.929 14.393L60.576 12.867L62.214 11.324L63.657 12.951V12.952ZM60.676 9.787L59.133 11.425L57.607 10.072L59.048 8.344L60.675 9.787H60.676ZM57.337 7.002L56.002 8.813L54.325 7.653L55.548 5.765L57.337 7.002ZM53.688 4.638L52.581 6.597L50.776 5.648L51.762 3.626L53.687 4.638H53.688ZM49.78 2.732L48.918 4.81L47.013 4.087L47.747 1.96L49.78 2.731V2.732ZM45.671 1.314L45.068 3.482L43.089 2.996L43.559 0.796L45.672 1.315L45.671 1.314ZM41.418 0.405L41.082 2.63L39.059 2.387L39.26 0.146L41.418 0.405ZM37.09 0.016L36 0L34.91 0.016L34.977 2.265L36 2.25L37.023 2.265L37.09 0.016ZM32.74 0.145L32.941 2.386L30.918 2.629L30.582 0.404L32.74 0.146V0.145ZM28.442 0.794L28.912 2.994L26.932 3.48L26.329 1.312L28.442 0.793V0.794ZM24.253 1.96L24.987 4.087L23.082 4.81L22.22 2.732L24.253 1.961V1.96ZM20.237 3.625L21.224 5.647L19.419 6.596L18.312 4.637L20.237 3.625ZM16.452 5.764L17.675 7.652L15.998 8.812L14.663 7.001L16.452 5.764ZM12.952 8.343L14.393 10.071L12.867 11.424L11.324 9.786L12.951 8.343H12.952ZM9.787 11.324L11.425 12.867L10.072 14.393L8.344 12.952L9.787 11.325V11.324ZM7.002 14.663L8.813 15.998L7.653 17.675L5.765 16.452L7.002 14.663ZM4.638 18.312L6.597 19.419L5.648 21.224L3.626 20.238L4.638 18.313V18.312ZM2.732 22.22L4.81 23.082L4.087 24.987L1.96 24.253L2.731 22.22H2.732ZM1.314 26.329L3.482 26.932L2.996 28.912L0.796 28.442L1.315 26.329H1.314ZM0.405 30.582L2.63 30.918L2.387 32.941L0.146 32.74L0.405 30.582ZM0.016 34.91L0 36L0.016 37.09L2.265 37.023L2.25 36L2.265 34.977L0.016 34.91ZM0.145 39.26L2.386 39.059L2.629 41.082L0.404 41.418L0.145 39.26ZM0.794 43.558L2.994 43.088L3.48 45.067L1.312 45.67L0.793 43.557L0.794 43.558ZM1.959 47.747L4.086 47.013L4.809 48.918L2.731 49.78L1.96 47.747H1.959ZM3.624 51.762L5.646 50.776L6.595 52.581L4.636 53.688L3.624 51.763V51.762ZM5.763 55.547L7.651 54.324L8.811 56.001L7 57.336L5.763 55.547ZM8.342 59.047L10.07 57.606L11.423 59.132L9.785 60.675L8.342 59.048V59.047ZM11.323 62.212L12.866 60.574L14.392 61.927L12.951 63.655L11.324 62.212H11.323ZM14.662 64.997L15.997 63.186L17.674 64.346L16.451 66.234L14.662 64.997ZM18.311 67.361L19.418 65.402L21.223 66.351L20.237 68.373L18.312 67.361H18.311ZM22.219 69.267L23.081 67.189L24.986 67.912L24.252 70.039L22.219 69.268V69.267ZM26.328 70.685L26.931 68.517L28.911 69.003L28.441 71.203L26.328 70.684V70.685ZM30.581 71.594L30.917 69.369L32.94 69.612L32.739 71.853L30.581 71.594ZM34.909 71.983L34.976 69.734L36 69.75L37.023 69.735L37.09 71.984L36 72C35.635 72 35.272 71.995 34.91 71.984L34.909 71.983ZM39.259 71.854L39.058 69.613L41.081 69.37L41.417 71.595L39.259 71.855V71.854ZM43.557 71.205L43.087 69.005L45.066 68.519L45.669 70.687L43.556 71.206L43.557 71.205ZM47.746 70.039L47.012 67.912L48.917 67.189L49.779 69.267L47.746 70.038V70.039ZM51.761 68.374L50.775 66.352L52.58 65.403L53.687 67.362L51.762 68.374H51.761ZM55.546 66.235L54.323 64.347L56 63.187L57.335 64.998L55.546 66.235ZM59.046 63.656L57.605 61.928L59.131 60.575L60.674 62.213L59.047 63.656H59.046ZM62.211 60.675L60.573 59.132L61.926 57.606L63.654 59.047L62.211 60.674V60.675ZM64.996 57.336L63.185 56.001L64.345 54.324L66.233 55.547L64.996 57.336ZM67.36 53.687L65.401 52.58L66.35 50.775L68.372 51.761L67.36 53.686V53.687ZM69.266 49.779L67.188 48.917L67.911 47.012L70.038 47.746L69.267 49.779H69.266ZM70.684 45.67L68.516 45.067L69.002 43.088L71.202 43.558L70.683 45.671L70.684 45.67ZM71.593 41.417L69.368 41.081L69.611 39.058L71.852 39.259L71.593 41.417Z" fill="#BDC2C4"/>
<g opacity="0.2">
<path d="M54.8723 53.6511C57.9224 52.8651 60.6668 50.9014 62.3661 47.9581C65.7226 42.1446 63.7307 34.7109 57.9172 31.3544C52.1037 27.998 44.67 29.9899 41.3135 35.8034C39.8952 38.2601 39.4319 41.0061 39.8085 43.6115C36.0388 44.0069 32.6229 45.9938 30.6999 49.3245C29.034 52.21 28.8017 55.5616 29.7722 58.6572C29.6083 58.8127 29.446 58.9717 29.2854 59.1342C23.6417 64.8449 22.3073 72.677 26.3048 76.6276C30.3023 80.5782 38.1181 79.1513 43.7618 73.4406C45.4992 71.6825 46.8282 69.7235 47.719 67.7385C50.2639 66.8342 52.4569 65.1209 53.8577 62.6947C55.4719 59.8988 55.7401 56.6653 54.8723 53.6511Z" fill="url(#paint0_linear)"/>
<path d="M60.05 17.8651C59.0151 23.1347 59.7781 27.7212 61.7542 28.1093C63.7303 28.4974 66.1712 24.5401 67.2062 19.2705C68.2411 14.0009 67.4781 9.41437 65.502 9.02627C63.5259 8.63817 61.085 12.5954 60.05 17.8651Z" fill="url(#paint1_linear)"/>
<path d="M45.1859 22.5121C48.0216 25.4639 51.0969 27.1107 52.0549 26.1904C53.0129 25.2701 51.4906 22.1311 48.6549 19.1794C45.8192 16.2277 42.7438 14.5809 41.7859 15.5012C40.8279 16.4215 42.3501 19.5604 45.1859 22.5121Z" fill="url(#paint2_linear)"/>
<path d="M71.8504 35.0077C75.904 34.4402 79.0408 32.9136 78.8566 31.598C78.6724 30.2824 75.237 29.6761 71.1834 30.2436C67.1298 30.8112 63.993 32.3377 64.1772 33.6533C64.3614 34.9689 67.7968 35.5753 71.8504 35.0077Z" fill="url(#paint3_linear)"/>
</g>
</g>
<defs>
<linearGradient id="paint0_linear" x1="64.1771" y1="33.6533" x2="78.8566" y2="31.598" gradientUnits="userSpaceOnUse">
<stop stop-color="#8ED576"/>
<stop offset="1" stop-color="#B1E1A0"/>
</linearGradient>
<linearGradient id="paint1_linear" x1="64.1771" y1="33.6533" x2="78.8566" y2="31.598" gradientUnits="userSpaceOnUse">
<stop stop-color="#8ED576"/>
<stop offset="1" stop-color="#B1E1A0"/>
</linearGradient>
<linearGradient id="paint2_linear" x1="64.1771" y1="33.6533" x2="78.8566" y2="31.598" gradientUnits="userSpaceOnUse">
<stop stop-color="#8ED576"/>
<stop offset="1" stop-color="#B1E1A0"/>
</linearGradient>
<linearGradient id="paint3_linear" x1="64.1771" y1="33.6533" x2="78.8566" y2="31.598" gradientUnits="userSpaceOnUse">
<stop stop-color="#8ED576"/>
<stop offset="1" stop-color="#B1E1A0"/>
</linearGradient>
</defs>
</svg>

<svg xmlns="http://www.w3.org/2000/svg" xmlns:v="https://vecta.io/nano" xmlns:xlink="http://www.w3.org/1999/xlink" width="72" height="72" fill="none"><style>.B{fill:#bdc2c4}.C{fill-rule:evenodd}.D{fill:#e9eaeb}</style><path d="M72 36c0 19.882-16.118 36-36 36S0 55.882 0 36 16.118 0 36 0s36 16.118 36 36z" class="D"/><mask id="A" width="66" height="66" x="3" y="3" mask-type="alpha" maskUnits="userSpaceOnUse"><path fill="#c4c4c4" d="M68.25 36c0 17.811-14.439 32.25-32.25 32.25S3.75 53.811 3.75 36 18.189 3.75 36 3.75 68.25 18.189 68.25 36z"/></mask><g mask="url(#A)"><path d="M20.993 23.265c5.136-.129 9.09 4.462 8.211 9.523l-1.52 8.757c2.546-.493 5.247-.757 8.039-.757 1.983 0 3.919.133 5.786.387l7.777-11.602c2.485-3.707 7.505-4.698 11.212-2.212 4.285 2.872 4.818 8.97 1.096 12.542l-6.335 6.081c4.646 3.018 7.872 7.315 7.872 12.424v3.915c0 5.322-3.521 9.778-8.443 12.786-4.96 3.031-11.671 4.834-18.965 4.834s-14.004-1.802-18.965-4.834c-4.922-3.008-8.443-7.464-8.443-12.786v-3.915c0-3.978 1.981-7.49 5.023-10.248l-.328-16.543a8.2 8.2 0 0 1 7.983-8.35zm-5.376 25.886c-.017-.14-.027-.283-.03-.427l-.34-17.154a5.96 5.96 0 0 1 5.802-6.069A5.89 5.89 0 0 1 27 32.405l-2.103 12.111a35.39 35.39 0 0 1 2.376-.603c2.641-.575 5.486-.888 8.45-.888 2.44 0 4.798.212 7.029.608.121-.372.294-.733.522-1.074l7.87-11.74c1.797-2.681 5.427-3.397 8.107-1.6 3.098 2.077 3.484 6.486.793 9.069l-8.498 8.156a25.23 25.23 0 0 1 2.051 1.133c4.51 2.78 7.296 6.606 7.296 10.83v3.915c0 8.495-11.269 15.382-25.17 15.382s-25.17-6.887-25.17-15.382v-3.915c0-3.474 1.885-6.68 5.065-9.255z" class="B C"/><path d="M60.893 62.322c0 8.495-11.269 15.382-25.17 15.382s-25.17-6.887-25.17-15.382v-3.915h50.341v3.915z" class="D"/><path d="M27 32.405a5.89 5.89 0 0 0-5.951-6.903 5.96 5.96 0 0 0-5.802 6.069l.34 17.154.03.427c-3.179 2.575-5.065 5.781-5.065 9.255 0 8.495 11.269 15.382 25.17 15.382s25.17-6.887 25.17-15.382c0-4.831-3.645-9.143-9.346-11.963l8.498-8.156c2.691-2.583 2.306-6.992-.792-9.069-2.681-1.797-6.31-1.081-8.107 1.6l-7.87 11.74c-.228.341-.402.702-.522 1.074-2.231-.396-4.589-.608-7.029-.608-3.875 0-7.546.535-10.826 1.491L27 32.405z" class="C D"/><use class="B" xlink:href="#C"/><path d="M28.891 54.035c.57.855.959 2.101.959 3.532a1.12 1.12 0 0 0 1.119 1.119 1.12 1.12 0 0 0 1.119-1.119c0-1.812-.488-3.503-1.335-4.773-.842-1.263-2.128-2.218-3.699-2.218s-2.858.956-3.699 2.218c-.847 1.271-1.335 2.962-1.335 4.773a9.51 9.51 0 0 0 .405 2.779 1.12 1.12 0 0 0 1.397.742 1.12 1.12 0 0 0 .742-1.397c-.195-.636-.307-1.356-.307-2.123 0-1.432.389-2.677.959-3.532.575-.863 1.247-1.222 1.838-1.222s1.263.359 1.838 1.222zm19.297 0c.57.855.959 2.101.959 3.532a1.12 1.12 0 0 0 1.119 1.119 1.12 1.12 0 0 0 1.119-1.119c0-1.812-.488-3.503-1.335-4.773-.842-1.263-2.128-2.218-3.699-2.218s-2.858.956-3.699 2.218c-.847 1.271-1.335 2.962-1.335 4.773a9.51 9.51 0 0 0 .405 2.779 1.12 1.12 0 0 0 1.398.742 1.12 1.12 0 0 0 .742-1.397 7.27 7.27 0 0 1-.307-2.123c0-1.432.389-2.677.959-3.532.575-.863 1.247-1.222 1.838-1.222s1.263.359 1.838 1.222z" class="B C"/><use x="19.297" class="B" xlink:href="#C"/><path d="M34.022 25.946v-.677c0-.95.19-1.745.57-2.386.404-.641.938-1.27 1.603-1.888.617-.593 1.223-1.104 1.816-1.531s1.08-.878 1.46-1.353.57-1.033.57-1.674c0-.926-.332-1.579-.997-1.959-.641-.404-1.721-.605-3.241-.605-.997 0-1.982.13-2.956.392-.973.237-1.804.546-2.493.926v-4.808c.879-.427 1.911-.772 3.098-1.033 1.211-.261 2.529-.392 3.953-.392 2.754 0 4.855.605 6.303 1.816 1.448 1.187 2.172 2.825 2.172 4.915 0 1.33-.273 2.41-.819 3.241-.546.807-1.341 1.638-2.386 2.493l-2.208 1.923c-.594.522-.89 1.235-.89 2.137v.463h-5.556zm-.249 6.304v-4.131h6.019v4.131h-6.019z" class="B"/></g><path d="M71.984 37.09l-2.249-.067L69.75 36l-.015-1.023 2.249-.067L72 36l-.016 1.09zm-.129-4.35l-2.241.201-.243-2.023 2.225-.336.26 2.158zm-.649-4.298l-2.2.47-.486-1.98 2.168-.603.519 2.113zm-1.166-4.189l-2.127.734-.723-1.905 2.078-.862.771 2.033zm-1.665-4.016l-2.022.987-.949-1.805 1.959-1.107 1.012 1.925zm-2.139-3.785l-1.888 1.223-1.16-1.677 1.811-1.335 1.237 1.789zm-2.579-3.5l-1.728 1.441-1.353-1.526 1.638-1.543 1.443 1.627zm-2.981-3.165l-1.543 1.638-1.526-1.353 1.441-1.728 1.627 1.443zm-3.339-2.785l-1.335 1.811-1.677-1.16 1.223-1.888 1.789 1.237zm-3.649-2.364l-1.107 1.959-1.805-.949.986-2.022 1.925 1.012zM49.78 2.732l-.862 2.078-1.905-.723.734-2.127 2.033.771zm-4.109-1.418l-.603 2.168-1.979-.486.47-2.2 2.113.519zM41.418.405l-.336 2.225-2.023-.243.201-2.241 2.158.259zM37.09.016L36 0l-1.09.016.067 2.249L36 2.25l1.023.015.067-2.249zm-4.35.129l.201 2.241-2.023.243-.336-2.225L32.74.146zm-4.298.649l.47 2.2-1.98.486-.603-2.168 2.113-.519zM24.253 1.96l.734 2.127-1.905.723-.862-2.078 2.033-.771zm-4.016 1.665l.987 2.022-1.805.949-1.107-1.959 1.925-1.012zm-3.785 2.139l1.223 1.888-1.677 1.16-1.335-1.811 1.789-1.237zm-3.5 2.579l1.441 1.728-1.526 1.353-1.543-1.638 1.627-1.443zm-3.165 2.981l1.638 1.543-1.353 1.526-1.728-1.441 1.443-1.627zm-2.785 3.339l1.811 1.335-1.16 1.677-1.888-1.223 1.237-1.789zm-2.364 3.649l1.959 1.107-.949 1.805-2.022-.986 1.012-1.925zM2.732 22.22l2.078.862-.723 1.905-2.127-.734.771-2.033zm-1.418 4.109l2.168.603-.486 1.98-2.2-.47.519-2.113zm-.909 4.253l2.225.336-.243 2.023-2.241-.201.259-2.158zM.016 34.91L0 36l.016 1.09 2.249-.067L2.25 36l.015-1.023-2.249-.067zm.129 4.35l2.241-.201.243 2.023-2.225.336-.259-2.158zm.649 4.298l2.2-.47.486 1.979-2.168.603-.519-2.113zm1.165 4.189l2.127-.734.723 1.905-2.078.862-.771-2.033zm1.665 4.015l2.022-.986.949 1.805-1.959 1.107-1.012-1.925zm2.139 3.785l1.888-1.223 1.16 1.677-1.811 1.335-1.237-1.789zm2.579 3.5l1.728-1.441 1.353 1.526-1.638 1.543-1.443-1.627zm2.981 3.165l1.543-1.638 1.526 1.353-1.441 1.728-1.627-1.443zm3.339 2.785l1.335-1.811 1.677 1.16-1.223 1.888-1.789-1.237zm3.649 2.364l1.107-1.959 1.805.949-.986 2.022-1.925-1.012zm3.908 1.906l.862-2.078 1.905.723-.734 2.127-2.033-.771zm4.109 1.418l.603-2.168 1.98.486-.47 2.2-2.113-.519zm4.253.909l.336-2.225 2.023.243-.201 2.241-2.158-.259zm4.328.389l.067-2.249L36 69.75l1.023-.015.067 2.249L36 72c-.365 0-.728-.005-1.09-.016zm4.35-.129l-.201-2.241 2.023-.243.336 2.225-2.158.26zm4.298-.649l-.47-2.2 1.979-.486.603 2.168-2.113.519zm4.189-1.166l-.734-2.127 1.905-.723.862 2.078-2.033.771zm4.015-1.665l-.986-2.022 1.805-.949 1.107 1.959-1.925 1.012zm3.785-2.139l-1.223-1.888 1.677-1.16 1.335 1.811-1.789 1.237zm3.5-2.579l-1.441-1.728 1.526-1.353 1.543 1.638-1.627 1.443zm3.165-2.981l-1.638-1.543 1.353-1.526 1.728 1.441-1.443 1.627zm2.785-3.339l-1.811-1.335 1.16-1.677 1.888 1.223-1.237 1.789zm2.364-3.649l-1.959-1.107.949-1.805 2.022.986-1.012 1.925zm1.906-3.908l-2.078-.862.723-1.905 2.127.734-.771 2.033zm1.418-4.109l-2.168-.603.486-1.979 2.2.47-.519 2.113zm.909-4.253l-2.225-.336.243-2.023 2.241.201-.259 2.158z" class="B C"/><defs><path id="C" d="M32.087 57.288c0 2.317-1.252 4.195-2.797 4.195s-2.797-1.878-2.797-4.195 1.252-4.195 2.797-4.195 2.797 1.878 2.797 4.195z"/></defs></svg>
